X:1
T:Horrepolska efter Nils Kristensson 
T:(Carl Eric Berndts samlingar)
R:Horrepolska
O:Vallkärra, Skåne
S:efter Nils Kristensson
B:Upptecknad 1930 av [[Personer/Carl Erik Berndt]]
Z:Åke Persson, 2015-07-27
M:3/4
L:1/8
Q:140
K:G
|: G>B d>g b>g | e2 e>c e>g | d2 d>B e>c | (3(ABA) GD B,D |
G>B d>g b>g | e2 e>c e>g | d2 d>B e>c | (3(ABA) G2 G2 ::
c2 c>B cd | e2 ec eg | d2 dB ec | (3(ABA) GD B,D |
c2 c>B cd | e2 ec eg | d2 dB ec | (3(ABA) G2 G2 :|

